images/icon-zeus.svg

<?xml version="1.0" encoding="UTF-8" standalone="no"?>
<svg width="36px" height="64px" viewBox="0 0 36 64" version="1.1" xmlns="http://www.w3.org/2000/svg" xmlns:xlink="http://www.w3.org/1999/xlink">
    <!-- Generator: Sketch 39.1 (31720) - http://www.bohemiancoding.com/sketch -->
    <title>icon-zeus</title>
    <desc>Created with Sketch.</desc>
    <defs></defs>
    <g id="Symbols" stroke="none" stroke-width="1" fill="none" fill-rule="evenodd">
        <g id="icon-zeus" fill="#000000">
            <g id="Fill-1">
                <path d="M34.5882286,26.7721143 C34.2796571,26.1812571 33.6728,25.8132571 33.0065143,25.8132571 L17.9585143,25.8178286 L26.4213714,2.3904 C26.6179429,1.84297143 26.5368,1.23382857 26.2019429,0.7584 C25.8682286,0.284114286 25.3230857,-0.000457142857 24.7425143,-0.000457142857 L12.5448,-0.000457142857 C11.7848,-0.000457142857 11.1070857,0.481828571 10.8499429,1.22354286 L0.0990857143,34.9892571 C-0.0906285714,35.5344 -0.00377142857,36.1401143 0.329942857,36.6109714 C0.663657143,37.0818286 1.20765714,37.3618286 1.78365714,37.3618286 L14.6168,37.3641143 L7.20194286,61.6875429 C6.94137143,62.5458286 7.32308571,63.4201143 8.12994286,63.8132571 C8.39051429,63.9389714 8.66137143,63.9995429 8.92651429,63.9995429 C9.4888,63.9995429 10.0259429,63.7275429 10.3745143,63.2269714 L34.4716571,28.6178286 C34.8522286,28.0704 34.8968,27.3629714 34.5882286,26.7721143"></path>
            </g>
        </g>
    </g>
</svg>

<svg width="36" height="64" viewBox="0 0 36 64" xmlns="http://www.w3.org/2000/svg"><title>icon-zeus</title><path d="M34.588 26.772a1.78 1.78 0 0 0-1.581-.959l-15.048.005L26.42 2.39A1.786 1.786 0 0 0 24.743 0H12.545c-.76 0-1.438.482-1.695 1.224L.1 34.989a1.784 1.784 0 0 0 1.685 2.373l12.832.002-7.415 24.324c-.26.858.121 1.732.928 2.125a1.757 1.757 0 0 0 2.245-.586l24.097-34.61a1.78 1.78 0 0 0 .116-1.845" fill="#000" fill-rule="evenodd"/></svg>
